X: 113
M: C|
L: 1/8
K: G
V: 1
|:\
|:\
bage gedB |
[1 bage gedB | GBgB G/G/G G2 ||\
[2 (b/a/)g (a/g/)e (g/e/)d (e/d/)B | GBgB G/G/G G2 :|
V: 2 clef=bass middle=d
|: g4 G4 | g2G2 d2D2 | g2G2 B2c2 | d2D2 g2G2 :|
|: g2c2 B2G2 | g2G2 d2D2 |[1 g2c2 B2G2 | d2D2 g2G2 ||
[2 g2c2 B2G2 | d2D2 g2G2 :|

